www/images/vector/logos/checkdesk.svg

<svg width="636" height="119" viewBox="0 0 636 119" xmlns="http://www.w3.org/2000/svg"><title>Imported Layers</title><g fill="#E4BA2A" fill-rule="evenodd"><path d="M54.767 51.496c-1.2-4.408-5.88-11.365-15.11-11.365-9.218 0-16.566 7.354-16.566 20.725 0 12.03 6.283 20.852 16.84 20.852 10.155 0 14.042-7.75 16.044-13.1l13.77 7.22C64.53 90.263 51.294 96.68 39.658 96.68c-18.58 0-33.145-14.303-33.145-35.426 0-20.453 14.705-35.426 33.69-35.426 16.837 0 25.394 11.234 28.867 18.984l-14.303 6.684M91.863.297V34.65c5.084-5.078 12.04-8.822 21.26-8.822 8.283 0 14.705 3.21 18.308 7.223 5.485 5.878 5.616 12.698 5.616 20.317v41.31h-15.77V57.91c-.263-6.014-.263-7.484-1.068-9.492-.535-1.332-2.808-7.352-11.636-7.352-10.287 0-15.098 8.29-16.176 12.168-.533 2.14-.533 3.207-.533 10.696v30.744H75.818V.296h16.045M211.03 79.705C202.75 90.803 192.06 96.68 178.42 96.68c-17.514 0-34.354-11.092-34.354-35.694 0-22.455 14.434-35.158 33.287-35.158 17.643 0 24.99 10.565 26.33 12.566 5.486 7.756 6.684 19.387 6.815 26.07h-49.463c1.873 10.56 8.425 16.58 18.984 16.58 10.96 0 15.38-6.417 17.382-9.226l13.63 7.887zm-18.177-27.008c-1.47-10.422-7.88-14.035-14.97-14.035-8.553 0-14.442 4.947-16.313 14.035h31.283zM266.152 51.496c-1.197-4.408-5.877-11.365-15.098-11.365-9.23 0-16.576 7.354-16.576 20.725 0 12.03 6.28 20.852 16.838 20.852 10.156 0 14.04-7.75 16.045-13.1l13.77 7.22c-5.215 14.435-18.45 20.853-30.076 20.853-18.592 0-33.154-14.303-33.154-35.426 0-20.453 14.705-35.426 33.687-35.426 16.84 0 25.397 11.234 28.868 18.984l-14.303 6.684M303.38.297v53.07l26.07-25.53H349.9l-25.525 25.53 28.072 41.31h-19.516L312.742 64.73l-9.362 9.225v20.72h-15.904V.296h15.904"/><path d="M415.394.297v94.38H399.49V88.26c-4.953 6.013-11.635 8.42-18.58 8.42-15.914 0-29.683-11.897-29.683-33.952 0-19.92 11.234-36.9 30.347-36.9 6.553 0 12.834 1.873 17.916 7.49V.298h15.904zM395.746 46.82c-2.404-3.613-6.422-6.15-11.766-6.15-10.83 0-16.045 9.758-16.045 20.316 0 1.203.14 21.26 15.772 21.26 8.295 0 15.783-6.15 15.643-20.59-.13-4.277-.665-10.428-3.604-14.836zM489.9 79.705c-8.285 11.098-18.972 16.975-32.613 16.975-17.514 0-34.352-11.092-34.352-35.694 0-22.455 14.434-35.158 33.286-35.158 17.647 0 24.995 10.565 26.333 12.566 5.486 7.756 6.683 19.387 6.814 26.07h-49.463c1.873 10.56 8.426 16.58 18.985 16.58 10.96 0 15.38-6.417 17.38-9.226l13.63 7.887zm-18.177-27.008c-1.47-10.422-7.88-14.035-14.967-14.035-8.557 0-14.446 4.947-16.316 14.035h31.283zM504.393 74.893c4.017 4.947 10.027 8.556 19.257 8.556 9.22 0 13.237-4.546 13.237-7.888 0-4.28-4.822-5.35-6.957-5.752-2.276-.535-13.235-2.537-15.64-3.207-15.905-3.744-18.855-12.968-18.855-18.982 0-11.364 10.297-21.792 28.618-21.792 10.156 0 17.502 3.21 22.053 6.418 3.34 2.14 5.486 4.412 6.814 6.02l-11.365 10.558c-1.87-3.61-6.41-10.162-18.178-10.162-7.62 0-11.092 3.342-11.092 6.818 0 4.813 4.942 6.15 13.498 7.622 13.9 2.54 17.787 3.21 22.063 6.552 4.136 3.205 6.814 8.555 6.814 14.166 0 10.428-9.36 22.86-30.074 22.86-11.9 0-23.664-3.74-32.09-11.897l11.897-9.89M575.703.297v53.07l26.07-25.53h20.452L596.7 53.368l28.07 41.31h-19.514L585.062 64.73l-9.36 9.225v20.72H559.8V.296h15.903M5.456 118.883H629.37c6.572 0 8.94-8.36 1.064-8.36H6.52c-6.572 0-8.94 8.36-1.064 8.36"/></g></svg>

<?xml version="1.0" encoding="UTF-8" standalone="no"?>
<svg width="636px" height="119px" viewBox="0 0 636 119" version="1.1" xmlns="http://www.w3.org/2000/svg" xmlns:xlink="http://www.w3.org/1999/xlink" xmlns:sketch="http://www.bohemiancoding.com/sketch/ns">
    <!-- Generator: Sketch 3.2.2 (9983) - http://www.bohemiancoding.com/sketch -->
    <title>Imported Layers</title>
    <desc>Created with Sketch.</desc>
    <defs></defs>
    <g id="Page-1" stroke="none" stroke-width="1" fill="none" fill-rule="evenodd" sketch:type="MSPage">
        <g id="Imported-Layers" sketch:type="MSLayerGroup" fill="#E4BA2A">
            <path d="M54.767,51.496 C53.568,47.088 48.888,40.131 39.658,40.131 C30.439,40.131 23.091,47.484 23.091,60.855 C23.091,72.885 29.373,81.707 39.931,81.707 C50.085,81.707 53.972,73.957 55.974,68.607 L69.744,75.828 C64.531,90.262 51.294,96.68 39.658,96.68 C21.078,96.68 6.513,82.377 6.513,61.254 C6.513,40.801 21.218,25.828 40.203,25.828 C57.04,25.828 65.597,37.062 69.07,44.812 L54.767,51.496" id="Fill-1" sketch:type="MSShapeGroup"></path>
            <path d="M91.863,0.297 L91.863,34.65 C96.947,29.572 103.902,25.828 113.123,25.828 C121.406,25.828 127.828,29.039 131.431,33.051 C136.915,38.928 137.046,45.748 137.046,53.367 L137.046,94.676 L121.275,94.676 L121.275,57.912 C121.013,51.898 121.013,50.428 120.208,48.42 C119.673,47.088 117.4,41.068 108.572,41.068 C98.285,41.068 93.474,49.357 92.396,53.236 C91.863,55.375 91.863,56.443 91.863,63.932 L91.863,94.676 L75.818,94.676 L75.818,0.297 L91.863,0.297" id="Fill-2" sketch:type="MSShapeGroup"></path>
            <path d="M211.031,79.705 C202.748,90.803 192.058,96.68 178.419,96.68 C160.906,96.68 144.066,85.588 144.066,60.986 C144.066,38.531 158.5,25.828 177.353,25.828 C194.996,25.828 202.343,36.393 203.683,38.394 C209.169,46.15 210.367,57.781 210.498,64.465 L161.035,64.465 C162.908,75.023 169.46,81.043 180.019,81.043 C190.98,81.043 195.4,74.627 197.402,71.818 L211.031,79.705 L211.031,79.705 Z M192.853,52.697 C191.382,42.275 184.972,38.662 177.884,38.662 C169.33,38.662 163.441,43.609 161.57,52.697 L192.853,52.697 L192.853,52.697 Z" id="Fill-3" sketch:type="MSShapeGroup"></path>
            <path d="M266.152,51.496 C264.955,47.088 260.275,40.131 251.054,40.131 C241.824,40.131 234.478,47.484 234.478,60.855 C234.478,72.885 240.757,81.707 251.316,81.707 C261.472,81.707 265.357,73.957 267.361,68.607 L281.13,75.828 C275.915,90.262 262.679,96.68 251.054,96.68 C232.462,96.68 217.9,82.377 217.9,61.254 C217.9,40.801 232.605,25.828 251.587,25.828 C268.427,25.828 276.984,37.062 280.455,44.812 L266.152,51.496" id="Fill-4" sketch:type="MSShapeGroup"></path>
            <path d="M303.38,0.297 L303.38,53.367 L329.449,27.838 L349.902,27.838 L324.377,53.367 L352.449,94.676 L332.934,94.676 L312.742,64.732 L303.38,73.957 L303.38,94.676 L287.476,94.676 L287.476,0.297 L303.38,0.297" id="Fill-5" sketch:type="MSShapeGroup"></path>
            <path d="M415.394,0.297 L415.394,94.676 L399.49,94.676 L399.49,88.26 C394.537,94.273 387.855,96.68 380.91,96.68 C364.996,96.68 351.227,84.783 351.227,62.728 C351.227,42.809 362.461,25.828 381.574,25.828 C388.127,25.828 394.408,27.701 399.49,33.318 L399.49,0.297 L415.394,0.297 L415.394,0.297 Z M395.746,46.82 C393.342,43.207 389.324,40.67 383.98,40.67 C373.15,40.67 367.935,50.428 367.935,60.986 C367.935,62.189 368.076,82.246 383.707,82.246 C392.002,82.246 399.49,76.096 399.35,61.656 C399.219,57.379 398.685,51.228 395.746,46.82 L395.746,46.82 Z" id="Fill-6" sketch:type="MSShapeGroup"></path>
            <path d="M489.9,79.705 C481.615,90.803 470.928,96.68 457.287,96.68 C439.773,96.68 422.935,85.588 422.935,60.986 C422.935,38.531 437.369,25.828 456.221,25.828 C473.867,25.828 481.215,36.393 482.553,38.394 C488.039,46.15 489.236,57.781 489.367,64.465 L439.904,64.465 C441.777,75.023 448.33,81.043 458.889,81.043 C469.85,81.043 474.269,74.627 476.271,71.818 L489.9,79.705 L489.9,79.705 Z M471.723,52.697 C470.252,42.275 463.842,38.662 456.756,38.662 C448.199,38.662 442.31,43.609 440.44,52.697 L471.723,52.697 L471.723,52.697 Z" id="Fill-7" sketch:type="MSShapeGroup"></path>
            <path d="M504.393,74.893 C508.41,79.84 514.42,83.449 523.65,83.449 C532.869,83.449 536.887,78.904 536.887,75.562 C536.887,71.283 532.065,70.213 529.93,69.81 C527.654,69.275 516.695,67.273 514.289,66.603 C498.385,62.859 495.435,53.635 495.435,47.621 C495.435,36.256 505.732,25.828 524.053,25.828 C534.209,25.828 541.555,29.039 546.106,32.246 C549.447,34.385 551.592,36.658 552.92,38.266 L541.555,48.824 C539.684,45.215 535.144,38.662 523.377,38.662 C515.758,38.662 512.285,42.004 512.285,45.48 C512.285,50.293 517.227,51.631 525.783,53.102 C539.684,55.643 543.57,56.312 547.846,59.654 C551.982,62.859 554.66,68.209 554.66,73.82 C554.66,84.248 545.299,96.68 524.586,96.68 C512.687,96.68 500.922,92.941 492.496,84.783 L504.393,74.893" id="Fill-8" sketch:type="MSShapeGroup"></path>
            <path d="M575.703,0.297 L575.703,53.367 L601.773,27.838 L622.225,27.838 L596.699,53.367 L624.771,94.676 L605.256,94.676 L585.062,64.732 L575.703,73.957 L575.703,94.676 L559.799,94.676 L559.799,0.297 L575.703,0.297" id="Fill-9" sketch:type="MSShapeGroup"></path>
            <path d="M5.456,118.883 L249.978,118.883 L490.733,118.883 L629.371,118.883 C635.942,118.883 638.31,110.524 630.434,110.524 L385.912,110.524 L145.157,110.524 L6.519,110.524 C-0.052,110.524 -2.42,118.883 5.456,118.883" id="Fill-10" sketch:type="MSShapeGroup"></path>
        </g>
    </g>
</svg>
